!!!ONB: MCCC : ILB0169_03 : Extracted Monophonic Melody
!!!COM: Beethoven, Ludwig van
!!!OPR: Piano Sonata No.8
!!!OMV: 3
!!!SCT: Op.13
!!!ODT: 1798///
**kern
*thru
*staff1
*Ipiano
*clefG2
*k[b-e-a-]
*c:
*M2/2
*MM208
8g
8cc
8dd
=1
4.ee-
8ff
4.dd
8ee-
=2
2cc
8cc
8b
8cc
8dd
=3
8ee-
8dd
8ee-
8ff
4gg
4gg
=4
2.gg
8ff
8gg
=5
2aa-
4dd
8ee-
8ff
=6
2gg
4cc
8cc
8dd
=7
4ee-
8ee-
8ff
4dd
8dd
8ee-
=8
4cc
4r
4r
8ff
8gg
=9
2aa-
4dd
8ee-
8ff
=10
2gg
4cc
8cc
8dd
=11
4ee-
8ee-
8ff
4dd
8dd
8ee-
=12
4cc
2bb-
[4bb-
=13
8bb-]
8aa-
8gg
8ff
8ee-
8dd
8cc
8b
=14
4cc
2ccc
[4bb-
=15
8bb-]
8aa-
8gg
8ff
8ee-
8dd
8cc
8b
=16
4cc
4dd
4ee-
4bb
=17
4ccc
4r
2r
=18
1e
=19
8f
8cc
8a-
8ff
8cc
8aa-
8ff
8ccc
=20
8bb-
8gg
8ee
8cc
8b-
8b
8cc
8g
=21
2b-
4a-
4r
=22
1d
=23
8e-
8b-
8g
8ee-
8b-
8gg
8ee-
8bb-
=24
8aa-
8gg
8ff
8ee-
8dd
8cc
8b-
8a-
=25
4g
2b-
[4b-
=26
8b-]
8cc
8dd
8ee-
8ff
8gg
8aa-
8ff
=27
8aa-
8gg
8ff
8ee-
8ee-
8dd
8cc
8dd
=28
8ff
8ee-
8dd
8cc
4b-
4b-
=29
1b-
=30
8b-
8cc
8dd
8ee-
8ff
8gg-
8aa-
8ff
=31
4gg-
2bb-
[4bb-
=32
4bb-]
2eee-
4aa
=33
2bb-[
12bb-]
12aa
12bb-
12ccc
12bb-
12aa
=34
2bb-[
12bb-]
12aa
12bb-
12ccc
12bb-
12aa
=35
12r
12bb-
12ccc
12ddd
12ccc
12bb-
12r
12ddd
12eee-
12fff
12eee-
12ddd
=36
12fff
12eee-
12ddd
12ccc
12bb-
12aa-
12gg
12ff
12ee-
16dd
16cc
16b-
16a-
=37
12g
12e-
12f
12g
12f
12e-
2a-
=38
12g
12ee-
12ff
12gg
12ff
12ee-
2aa-
=39
12gg
12ee-
12ff
12gg
12ff
12ee-
12bb-
12gg
12aa-
12bb-
12aa-
12gg
=40
12ddd-
12ccc
12bb-
12aa-
12gg
12ff
12ee-
12dd
12ee-
12ee
12ff
12dd-
=41
4r
12c
12e-
12a-
12cc
12ee-
12aa-
8ccc
8ccc
=42
8ccc
8bb-
8aa-
8gg
8gg
8ff
8ee-
8dd
=43
4ee-
4r
4r
4B-
=44
4f
4f
4f
4f
=45
2.b-
4b-
=46
2a-
2a
=47
2.b-
4b-
=48
4ff
4ff
4ff
4ff
=49
2.bb-
4bb
=50
4ccc
4r
4dd
4r
=51
4ee-
4r
12r
12b-
12cc
12dd
12cc
12b-
=52
4ee-
4r
12r
12b-
12cc
12dd
12cc
12b-
=53
12ee-
12gg
12ff
12ee-
12dd
12cc
12b
12cc
12b-
12a-
12g
12f
=54
4e-
4r
12r
12B-
12c
12d
12c
12B-
=55
4e-
4r
12r
12B-
12c
12d
12c
12B-
=56
4e-
4r
12r
12B
12c
12d
12c
12B
=57
12f
12e-
12d
12a-
12g
12f
12dd
12cc
12b
12ff
12ee-
12dd
=58
2.fff
12eee-
12ddd
12ccc
=59
12bb
12aa-
12gg
12ff
12ee-
12dd
12cc
12b
12a-
20g
20f
20e-
20d
20c
=60
1B[
=61
2B]
8r
8g
8cc
8dd
=62
4.ee-
8ff
4.dd
8ee-
=63
2cc
8cc
8b
8cc
8dd
=64
8ee-
8dd
8ee-
8ff
4gg
4gg
=65
2.gg
8ff
8gg
=66
2aa-
4dd
8ee-
8ff
=67
2gg
4cc
8cc
8dd
=68
4ee-
8ee-
8ff
4dd
8dd
8ee-
=69
4cc
4r
4r
8ff
8gg
=70
2aa-
4dd
8ee-
8ff
=71
2gg
4cc
8cc
8dd
=72
4ee-
8ee-
8ff
4dd
8dd
8ee-
=73
4cc
2bb-
[4bb-
=74
8bb-]
8aa-
8gg
8ff
8ee-
8dd
8cc
8b
=75
4cc
2ccc
[4bb-
=76
8bb-]
8aa-
8gg
8ff
8ee-
8dd
8cc
8b
=77
4cc
4dd
4ee-
4bb
=78
4ccc
4r
2r
=79
2c
2f
=80
2B-
2e-
=81
2A-
4d-
4c
=82
4B-
4A-
4G
4r
=83
4r
2cc
4f[
=84
4f]
2b-
4e-[
=85
4e-]
4a-
4g
4f
=86
4e-
4d
4f
4e-
=87
2cc
2ff
=88
2b-
[2ee-
=89
2ee-]
4dd-
4cc
=90
4b-
4a-
4g
4e-
=91
4r
2ccc
4ff[
=92
4ff]
2bb-
4ee-[
=93
4ee-]
4aa-
4gg
4ff
=94
4ee-
4dd
4ff
4ee-
=95
2r
4r
4ee-
=96
4cc
4dd-
4ff
4g
=97
4b-
4a-
4cc
4d
=98
4e-
4bb-
4eee-
4ddd-
=99
2ccc
2fff
=100
2bb-
2eee-
=101
2aa-
4ddd-
4ccc
=102
4bb-
4aa-
4gg
4dd-
=103
8ccc
8bb-
8aa-
8gg
8ff
8ee-
8dd-
8cc
=104
8b-
8a-
8g
8f
8e
8d-
8c
8B-
=105
8A-
8G
8F
8E
8F
8G
8A-
8G
=106
8F
8E-
8D
8C
8BB
8C
8D
8C
=107
16r
16GG
16BB
16D
4G
16r
16GG
16C
16E-
4G
=108
16r
16GG
16D
16F
4G
16r
16GG
16C
16E-
4G
=109
16r
16G
16B
16d
4g
16r
16G
16c
16e-
4g
=110
16r
16G
16d
16f
4g
16r
16G
16c
16e-
4g
=111
16r
16g
16b
16dd
4gg
16r
16g
16cc
16ee-
4gg
=112
16r
16g
16dd
16ff
4gg
16r
16g
16cc
16ee-
4gg
=113
12r
12g
12f#
12g
12b
12dd
12gg
12dd
12b
4g
=114
12r
12b
12a#
12b
12dd
12gg
12bb
12gg
12dd
4b
=115
12r
12dd
12cc#
12dd
12gg
12bb
12ddd
12bb
12gg
4dd
=116
12r
12ff
12ee
12ff
12bb
12ddd
12fff
12ddd
12bb
12fff
12ddd
12bb
=117
2.fff
12eee-
12ddd
12ccc
=118
12bb
12aa-
12gg
12ff
12ee-
12dd
12cc
12b
12a-
20g
20f
20e-
20d
20c
=119
1B[
=120
2B]
8r
8g
8cc
8dd
=121
4.ee-
8ff
4.dd
8ee-
=122
2cc
8cc
8b
8cc
8dd
=123
8ee-
8dd
8ee-
8ff
4gg
4gg
=124
2.gg
8ff
8gg
=125
2aa-
4dd
8ee-
8ff
=126
2gg
4cc
8cc
8dd
=127
4ee-
8ee-
8ff
4dd
8dd
8ee-
=128
4cc
4r
2r
=129
8r
8B
8d
8f
8r
8ff
8dd
8b
=130
8r
8c
8e-
8g
8r
8gg
8ee-
8cc
=131
8r
8e
8g
8b-
8r
8bb-
8gg
8ee
=132
8r
8f
8a-
8cc
8ff
8aa-
8ccc
8fff[
=133
4fff]
4eee-
4ddd
4ccc
=134
4bb
2gg
4gg[
=135
8gg]
8aa
8bb
8ccc
8ddd
8eee
8fff
8ddd
=136
8fff
8eee
8ddd
8ccc
8ccc
8bb
8aa
8bb
=137
8ddd
8ccc
8bb
8aa
4gg
4gg
=138
1gg[
=139
8gg]
8aa
8bb
8ccc
8ddd
8eee
8fff
8ddd
=140
8fff
8eee
8ddd
8ccc
8bb
8ccc
8eee
8ccc
=141
8bb
8aa
8ccc
8aa
8gg
8ff
8aa
8ff
=142
8ee
8dd
8ff
8dd
8aa
8ff
8dd
8cc
=143
12b
12g
12a
12b
12a
12g
2cc
=144
12b
12g
12a
12b
12a
12g
2cc
=145
12b
12g
12a
12b
12a
12g
12dd
12b
12cc
12dd
12cc
12b
=146
12ff
12ee
12dd
12cc
12b
12a
12g
12a
12g
12f
12e
12d
=147
12e
12c
12d
12e
12d
12c
2f
=148
12e
12cc
12dd
12ee
12dd
12cc
2ff
=149
12ee
12cc
12dd
12ee
12dd
12cc
12gg
12ee
12ff
12gg
12ff
12ee
=150
12bb-
12aa
12gg
12ff
12ee
12dd
12cc
12b
12cc
12cc#
12dd
12b-
=151
4r
12A
12c
12f
12a
12cc
12ff
8aa
8aa
=152
8aa
8gg
8ff
8ee
8ee
8dd
8cc
8b
=153
4cc
4r
4r
4g
=154
4dd
4dd
4dd
4dd
=155
2.gg
4gg
=156
2ff#
2ff#
=157
4gg
4r
4r
4G
=158
4d
4d
4d
4d
=159
2.g
4g
=160
4f
4f
4f
4f
=161
2.b-
4b-
=162
4a
4a
4a
4a
=163
2.dd
4a
=164
2.dd
4dd
=165
2.gg
4dd
=166
2.gg
4dd
=167
1aa-
=168
1gg
=169
1ff#
=170
1ff
=171
4.ee-
8ff
4.dd
8ee-
=172
2cc
8cc
8b
8cc
8dd
=173
8ee-
8dd
8ee-
8ff
4gg
4gg
=174
2.gg
8ff
8gg
=175
2aa-
4dd
8ee-
8ff
=176
2gg
4cc
8cc
8dd
=177
4ee-
8ee-
8ff
4dd
8dd
8ee-
=178
8cc
8b
8cc
8dd
8ee-
8ee
8ff
8gg
=179
8aa-
8gg
8bb-
8aa-
8gg
8ff
8ee-
8dd
=180
8gg
8ff#
8aa-
8gg
8ff
8ee-
8dd
8cc
=181
8ee-
8dd
8ff
8ee-
8dd
8cc#
8ee-
8dd
=182
4cc
4r
12r
12ccc
12ddd
12eee
12ddd
12ccc
=183
4fff
4r
12r
12ccc
12ddd
12eee
12ddd
12ccc
=184
4fff
4r
12r
12ccc
12ddd
12eee
12ddd
12ccc
=185
4fff
4ccc
4ccc
4bb
=186
4ccc
4r
12r
12cc
12dd
12ee
12dd
12cc
=187
4ff
4r
12r
12cc
12dd
12ee
12dd
12cc
=188
4ff
4r
12r
12c
12d
12e
12d
12c
=189
12f
12c
12d
12e-
12d
12c
12f#
12c
12d
12e-
12d
12c
=190
12g
12c
12d
12e-
12d
12c
12a
12c
12d
12e-
12d
12c
=191
12b
12B
12c
12d
12c
12B
12cc
12c
12d
12e-
12d
12c
=192
12dd
12d
12e-
12f
12e-
12d
12b
12B
12c
12d
12c
12B
=193
4cc
4r
4gg
16ff
16ee-
16dd
16cc
=194
4dd
4r
4ff
16ee-
16dd
16cc
16b
=195
4cc
4r
4gg
16ff
16ee-
16dd
16cc
=196
4dd
4r
4ff
16ee-
16dd
16cc
16b
=197
4cc
4r
4gg
16ff
16ee-
16dd
16cc
=198
4dd-
4r
[2fff
=199
2.fff]
12eee-
12ddd-
12ccc
=200
12bb-
12aa-
12gg
12ff
12ee-
12dd-
24cc
24b-
24a-
24g
24f
24e-
4r
=201
1r
=202
2.r
8A-
8B-
=203
4.c
8d-
4.B-
8c
=204
4A-
4r
4r
8a-
8b-
=205
4.cc
8dd-
4.b-
8cc
=206
4a-
4r
4r
4cc
=207
4ff#
4r
4r
4cc
=208
4gg
4r
4r
12eee-
12ddd
12ccc
=209
12fff
12eee-
12ddd
12ccc
12bb
12aa-
12gg
12ff
12ee-
12dd
12cc
12b
=210
4cc
4r
8r
==
*-
